dist/images/how-work-3.svg

<svg width="48" height="42" viewBox="0 0 48 42" fill="none" xmlns="http://www.w3.org/2000/svg">
<path d="M30.7689 38.9979H17.2314L18.1689 33.5801H29.8314L30.7689 38.9979Z" fill="#AAC2CC"/>
<path d="M30.7693 38.9979H28.0205L27.083 33.5801H29.8318L30.7693 38.9979Z" fill="#86A0A8"/>
<path d="M32.6444 38.998H15.3564C14.5798 38.998 13.9502 39.6277 13.9502 40.4043C13.9502 41.1809 14.5798 41.8105 15.3564 41.8105H32.6445C33.4211 41.8105 34.0508 41.1809 34.0508 40.4043C34.0508 39.6277 33.4211 38.998 32.6444 38.998Z" fill="#C2E8EF"/>
<path d="M34.0498 40.4043C34.0498 41.1805 33.4198 41.8105 32.6436 41.8105H29.8311C30.6073 41.8105 31.2373 41.1805 31.2373 40.4043C31.2373 39.6271 30.6073 38.998 29.8311 38.998H32.6436C33.4198 38.998 34.0498 39.6272 34.0498 40.4043Z" fill="#9DCFD6"/>
<path d="M47.2969 2.41031V31.3566C47.2969 32.5847 46.3013 33.5803 45.0741 33.5803H2.92594C1.785 33.5803 0.84375 32.7197 0.718125 31.6116C0.707812 31.5281 0.703125 31.4428 0.703125 31.3566V2.41031C0.703125 1.18313 1.69875 0.1875 2.92594 0.1875H45.0741C46.3013 0.1875 47.2969 1.18313 47.2969 2.41031Z" fill="#1DBCDE"/>
<path d="M47.2965 2.41031V31.3566C47.2965 32.5847 46.3009 33.5803 45.0737 33.5803H2.92559C1.78465 33.5803 0.843398 32.7197 0.717773 31.6116H42.729C43.9571 31.6116 44.9528 30.6159 44.9528 29.3878V2.41031C44.9528 1.18313 43.9571 0.1875 42.73 0.1875H45.0737C46.3009 0.1875 47.2965 1.18313 47.2965 2.41031Z" fill="black" fill-opacity="0.2"/>
<path d="M47.2969 29.8301V31.3563C47.2969 32.5845 46.3013 33.5801 45.0741 33.5801H2.92594C1.785 33.5801 0.84375 32.7195 0.718125 31.6113C0.707812 31.5279 0.703125 31.4426 0.703125 31.3563V29.8301H47.2969Z" fill="#4A555B"/>
<path d="M47.2965 29.8301V31.3563C47.2965 32.5845 46.3009 33.5801 45.0737 33.5801H2.92559C1.78465 33.5801 0.843398 32.7195 0.717773 31.6113H42.729C43.8053 31.6113 44.7034 30.8463 44.9087 29.8301H47.2965Z" fill="#2D383D"/>
<path d="M29.7451 14.4883H26.0965V7.08634H29.7451V14.4883Z" fill="#FFD85C"/>
<path d="M36.458 14.4883H32.8093V9.09775H36.458V14.4883Z" fill="#FF6248"/>
<path d="M43.1221 14.4883H39.4734V5.23056H43.1221V14.4883Z" fill="#2CDDDD"/>
<path d="M38.0356 17.2734C37.771 17.2734 37.5289 17.4219 37.4089 17.6577L34.0907 24.1794L31.2906 18.6758C31.1706 18.4401 30.9284 18.2916 30.6639 18.2916C30.3993 18.2916 30.1571 18.4401 30.0371 18.6758L28.5192 21.6592H26.0957C25.7074 21.6592 25.3926 21.974 25.3926 22.3623C25.3926 22.7506 25.7074 23.0654 26.0957 23.0654H28.9504C29.215 23.0654 29.4571 22.9169 29.5771 22.6811L30.6639 20.5452L33.464 26.0488C33.584 26.2846 33.8261 26.4331 34.0907 26.4331C34.3553 26.4331 34.5974 26.2846 34.7174 26.0488L38.0356 19.5271L39.6403 22.6812C39.7603 22.917 40.0025 23.0655 40.267 23.0655H43.1217C43.51 23.0655 43.8249 22.7507 43.8249 22.3624C43.8249 21.9741 43.51 21.6593 43.1217 21.6593H40.6982L38.6623 17.6577C38.5423 17.4219 38.3002 17.2734 38.0356 17.2734Z" fill="#112E49"/>
<path d="M26.0967 15.191H29.7453C30.1336 15.191 30.4485 14.8762 30.4485 14.4879V7.08594C30.4485 6.69762 30.1336 6.38281 29.7453 6.38281H26.0967C25.7084 6.38281 25.3936 6.69762 25.3936 7.08594V14.4879C25.3936 14.8762 25.7084 15.191 26.0967 15.191ZM26.7998 7.78906H29.0422V13.7847H26.7998V7.78906Z" fill="#112E49"/>
<path d="M36.4582 8.39453H32.8096C32.4213 8.39453 32.1064 8.70934 32.1064 9.09766V14.4882C32.1064 14.8765 32.4213 15.1913 32.8096 15.1913H36.4582C36.8465 15.1913 37.1614 14.8765 37.1614 14.4882V9.09766C37.1614 8.70934 36.8465 8.39453 36.4582 8.39453ZM35.7551 13.7851H33.5127V9.80078H35.7551V13.7851Z" fill="#112E49"/>
<path d="M43.1223 15.1913C43.5106 15.1913 43.8254 14.8765 43.8254 14.4882V5.23047C43.8254 4.84216 43.5106 4.52734 43.1223 4.52734H39.4736C39.0853 4.52734 38.7705 4.84216 38.7705 5.23047V14.4882C38.7705 14.8765 39.0853 15.1913 39.4736 15.1913H43.1223ZM40.1768 5.93359H42.4192V13.7851H40.1768V5.93359Z" fill="#112E49"/>
<path d="M20.8027 12.4805H4.86523C4.47692 12.4805 4.16211 12.7953 4.16211 13.1836C4.16211 13.5719 4.47692 13.8867 4.86523 13.8867H20.8027C21.191 13.8867 21.5059 13.5719 21.5059 13.1836C21.5059 12.7953 21.191 12.4805 20.8027 12.4805Z" fill="#112E49"/>
<path d="M4.86523 17.623H7.7173C8.10561 17.623 8.42043 17.3082 8.42043 16.9199C8.42043 16.5316 8.10561 16.2168 7.7173 16.2168H4.86523C4.47692 16.2168 4.16211 16.5316 4.16211 16.9199C4.16211 17.3082 4.47692 17.623 4.86523 17.623Z" fill="#112E49"/>
<path d="M20.8022 16.2168H10.9385C10.5502 16.2168 10.2354 16.5316 10.2354 16.9199C10.2354 17.3082 10.5502 17.623 10.9385 17.623H20.8022C21.1905 17.623 21.5053 17.3082 21.5053 16.9199C21.5053 16.5316 21.1905 16.2168 20.8022 16.2168Z" fill="#112E49"/>
<path d="M20.8027 4.52734H4.86523C4.47692 4.52734 4.16211 4.84216 4.16211 5.23047C4.16211 5.61878 4.47692 5.93359 4.86523 5.93359H20.8027C21.191 5.93359 21.5059 5.61878 21.5059 5.23047C21.5059 4.84216 21.191 4.52734 20.8027 4.52734Z" fill="#112E49"/>
<path d="M4.86523 9.66796H14.7485C15.1369 9.66796 15.4517 9.35315 15.4517 8.96484C15.4517 8.57653 15.1369 8.26172 14.7485 8.26172H4.86523C4.47692 8.26172 4.16211 8.57653 4.16211 8.96484C4.16211 9.35315 4.47692 9.66796 4.86523 9.66796Z" fill="#112E49"/>
<path d="M20.8022 8.26172H17.9697C17.5814 8.26172 17.2666 8.57653 17.2666 8.96484C17.2666 9.35315 17.5814 9.66796 17.9697 9.66796H20.8022C21.1905 9.66796 21.5053 9.35315 21.5053 8.96484C21.5053 8.57653 21.1905 8.26172 20.8022 8.26172Z" fill="#112E49"/>
<path d="M21.5059 20.6094C21.5059 20.2211 21.191 19.9062 20.8027 19.9062H4.86523C4.47692 19.9062 4.16211 20.2211 4.16211 20.6094C4.16211 20.9977 4.47692 21.3125 4.86523 21.3125H20.8027C21.191 21.3125 21.5059 20.9977 21.5059 20.6094Z" fill="#112E49"/>
<path d="M4.86523 23.6211C4.47692 23.6211 4.16211 23.9359 4.16211 24.3242C4.16211 24.7125 4.47692 25.0273 4.86523 25.0273H12.3652C12.7535 25.0273 13.0684 24.7125 13.0684 24.3242C13.0684 23.9359 12.7535 23.6211 12.3652 23.6211H4.86523Z" fill="#112E49"/>
</svg>

<svg width="48" height="42" fill="none" xmlns="http://www.w3.org/2000/svg"><path d="M30.769 38.998H17.23l.938-5.418H29.83l.938 5.418z" fill="#AAC2CC"/><path d="M30.77 38.998h-2.75l-.937-5.418h2.749l.937 5.418z" fill="#86A0A8"/><path d="M32.644 38.998H15.356a1.406 1.406 0 000 2.813h17.288a1.406 1.406 0 100-2.813z" fill="#C2E8EF"/><path d="M34.05 40.404c0 .776-.63 1.406-1.406 1.406H29.83a1.407 1.407 0 000-2.812h2.813c.776 0 1.406.63 1.406 1.406z" fill="#9DCFD6"/><path d="M47.297 2.41v28.947a2.224 2.224 0 01-2.223 2.223H2.926a2.223 2.223 0 01-2.223-2.223V2.41C.703 1.183 1.7.187 2.926.187h42.148c1.227 0 2.223.996 2.223 2.223z" fill="#1DBCDE"/><path d="M47.297 2.41v28.947a2.224 2.224 0 01-2.223 2.223H2.926a2.222 2.222 0 01-2.208-1.968h42.011a2.224 2.224 0 002.224-2.224V2.41A2.223 2.223 0 0042.73.187h2.344c1.227 0 2.223.996 2.223 2.223z" fill="#000" fill-opacity=".2"/><path d="M47.297 29.83v1.526a2.224 2.224 0 01-2.223 2.224H2.926a2.223 2.223 0 01-2.223-2.224V29.83h46.594z" fill="#4A555B"/><path d="M47.297 29.83v1.526a2.224 2.224 0 01-2.223 2.224H2.926a2.222 2.222 0 01-2.208-1.969h42.011a2.225 2.225 0 002.18-1.78h2.388z" fill="#2D383D"/><path d="M29.745 14.488h-3.649V7.086h3.65v7.402z" fill="#FFD85C"/><path d="M36.458 14.488h-3.649v-5.39h3.649v5.39z" fill="#FF6248"/><path d="M43.122 14.488h-3.649V5.231h3.65v9.257z" fill="#2CDDDD"/><path d="M38.036 17.273a.703.703 0 00-.627.385l-3.318 6.521-2.8-5.503a.703.703 0 00-1.254 0l-1.518 2.983h-2.423a.703.703 0 000 1.406h2.854a.703.703 0 00.627-.384l1.087-2.136 2.8 5.504a.703.703 0 001.253 0l3.319-6.522 1.604 3.154c.12.236.362.384.627.384h2.855a.703.703 0 100-1.406h-2.424l-2.036-4.001a.703.703 0 00-.626-.385zm-11.939-2.082h3.648a.703.703 0 00.703-.703V7.086a.703.703 0 00-.703-.703h-3.648a.703.703 0 00-.703.703v7.402c0 .388.314.703.703.703zm.703-7.402h2.242v5.996H26.8V7.789zm9.658.606H32.81a.703.703 0 00-.704.703v5.39c0 .389.315.703.704.703h3.648a.703.703 0 00.703-.703v-5.39a.703.703 0 00-.703-.703zm-.703 5.39h-2.242V9.801h2.242v3.984zm7.367 1.406a.703.703 0 00.703-.703V5.23a.703.703 0 00-.703-.703h-3.648a.703.703 0 00-.703.703v9.258c0 .389.314.703.703.703h3.648zm-2.945-9.257h2.242v7.851h-2.242V5.934zM20.803 12.48H4.865a.703.703 0 000 1.407h15.938a.703.703 0 100-1.407zM4.865 17.623h2.852a.703.703 0 000-1.406H4.865a.703.703 0 000 1.406zm15.937-1.406h-9.864a.703.703 0 000 1.406h9.864a.703.703 0 000-1.406zm.001-11.69H4.865a.703.703 0 000 1.407h15.938a.703.703 0 000-1.407zM4.865 9.668h9.883a.703.703 0 100-1.406H4.866a.703.703 0 000 1.406zm15.937-1.406H17.97a.703.703 0 000 1.406h2.832a.703.703 0 000-1.406zm.704 12.348a.703.703 0 00-.703-.704H4.865a.703.703 0 000 1.407h15.938a.703.703 0 00.703-.704zM4.865 23.621a.703.703 0 000 1.406h7.5a.703.703 0 100-1.406h-7.5z" fill="#112E49"/></svg>
